X:96
T:Harry the Tailor - Westaway
%%VWML:SBG-1-2-317-0
F:http://www.vwml.org/record/SBG/1/2/317
Z:Original Sibelius transcriptions by M. & S. Graebe
M:6/8
I:linebreak $
K:C
V:1 treble nm="P1"
V:1
 G | ECE GEG | ABA G2 G | cBc Adc | BAB c2 :| c | Bcd dBG | dBG c2 G |$ GAB cGE | FDE FEF | %10
w: |||||||* * * C *|* * * * * E||
 GAG EDC | ABA FED | EFG ABc | BAB c2 x | %14
w: C * * * * *||||

